X: 18
T: OLD COUNTRYMAN'S REEL
S: "Community Dances Manual 6", EFDSS, Jack Hamilton ed., 1981 p.13
R: reel
Z: 2010 John Chambers <jc:trillian.mit.edu>
M: 4/4
L: 1/8
K: Bb
"A"|: dc |\
"Bb"Bdfa bfgf | "F7"edcB AcFE | "Bb"DFBd ABcd | "Cm"edcB "F7"AcF2 |
"Bb"Bdfa bfgf | "F7"edcB AcFE | "Bb"DFBd DFAc | "F7"ecAc "Bb"B2 :|
"B"|: FE |\
"Bb"DFBF dFBF | "Bb7"DFBF dFBF | "Eb"EGBG eGBG | "Eb"EGBG eGBG |
"Bb"DFBF dFBF | "Bb7"DFBF dFBF | "F7"eAce AceA | "F7"ceAc "Bb"B2 :|

%%sep 2 1 500
%%sep 1 1 500

